public/logos/OR.svg

<?xml version="1.0" encoding="UTF-8"?>
<svg xmlns="http://www.w3.org/2000/svg" xmlns:xlink="http://www.w3.org/1999/xlink" width="176.37pt" height="54.59pt" viewBox="0 0 176.37 54.59" version="1.1">
<defs>
<clipPath id="clip1">
  <path d="M 159 32 L 176.371094 32 L 176.371094 54.589844 L 159 54.589844 Z M 159 32 "/>
</clipPath>
</defs>
<g id="surface1">
<path style=" stroke:none;fill-rule:nonzero;fill:rgb(92.562866%,10.093689%,18.186951%);fill-opacity:1;" d="M 3.085938 14.46875 L 18.53125 14.46875 C 20.042969 14.46875 21.183594 14.945312 21.632812 17.09375 C 22.132812 19.480469 21.925781 21.144531 19.234375 21.332031 L 14.390625 21.679688 C 17.957031 44.203125 38.820312 51.542969 50.183594 27.285156 C 52.0625 23.269531 52.675781 22.539062 54.738281 23.050781 C 57.527344 23.742188 57.910156 25.175781 56.582031 29.226562 C 46.757812 59.128906 13.75 62.125 7.269531 22.191406 L 3.332031 22.476562 C 0.125 22.703125 0 20.003906 0 18.503906 C 0 15.53125 1.105469 14.46875 3.085938 14.46875 "/>
<path style=" stroke:none;fill-rule:nonzero;fill:rgb(92.562866%,10.093689%,18.186951%);fill-opacity:1;" d="M 59.242188 0.00390625 C 62.402344 0.00390625 64.96875 2.566406 64.96875 5.730469 C 64.96875 8.890625 62.402344 11.457031 59.242188 11.457031 C 56.078125 11.457031 53.515625 8.890625 53.515625 5.730469 C 53.515625 2.566406 56.078125 0.00390625 59.242188 0.00390625 "/>
<path style=" stroke:none;fill-rule:nonzero;fill:rgb(92.562866%,10.093689%,18.186951%);fill-opacity:1;" d="M 80.894531 39.238281 L 85.992188 39.238281 L 83.417969 31.421875 Z M 75.8125 48.101562 C 75.253906 48.101562 74.8125 48.066406 74.492188 47.992188 C 74.175781 47.921875 73.9375 47.824219 73.785156 47.703125 C 73.585938 47.539062 73.488281 47.34375 73.488281 47.121094 C 73.488281 46.914062 73.566406 46.558594 73.71875 46.058594 L 80.710938 26.148438 C 80.800781 25.914062 80.886719 25.742188 80.96875 25.625 C 81.050781 25.507812 81.125 25.421875 81.191406 25.367188 C 81.34375 25.246094 81.59375 25.148438 81.933594 25.078125 C 82.273438 25.003906 82.789062 24.96875 83.484375 24.96875 C 84.1875 24.96875 84.714844 25.007812 85.066406 25.085938 C 85.417969 25.164062 85.671875 25.257812 85.824219 25.367188 C 85.980469 25.511719 86.132812 25.769531 86.289062 26.148438 L 93.28125 46.0625 C 93.433594 46.558594 93.511719 46.914062 93.511719 47.125 C 93.511719 47.277344 93.480469 47.398438 93.414062 47.488281 C 93.347656 47.578125 93.28125 47.648438 93.214844 47.703125 C 93.0625 47.828125 92.820312 47.921875 92.492188 47.996094 C 92.160156 48.066406 91.714844 48.101562 91.15625 48.101562 C 90.570312 48.101562 90.097656 48.066406 89.734375 47.996094 C 89.371094 47.921875 89.113281 47.828125 88.960938 47.703125 C 88.859375 47.617188 88.757812 47.464844 88.648438 47.257812 C 88.539062 47.046875 88.449219 46.828125 88.382812 46.609375 L 87.246094 43.105469 L 79.640625 43.105469 L 78.519531 46.609375 C 78.453125 46.828125 78.367188 47.046875 78.261719 47.257812 C 78.160156 47.464844 78.050781 47.617188 77.941406 47.703125 C 77.789062 47.828125 77.539062 47.921875 77.199219 47.996094 C 76.859375 48.066406 76.394531 48.101562 75.8125 48.101562 "/>
<path style=" stroke:none;fill-rule:nonzero;fill:rgb(92.562866%,10.093689%,18.186951%);fill-opacity:1;" d="M 97.769531 48.035156 C 97.207031 48.035156 96.765625 48.003906 96.441406 47.945312 C 96.117188 47.882812 95.882812 47.792969 95.738281 47.671875 C 95.496094 47.472656 95.378906 47.140625 95.378906 46.675781 L 95.378906 35.089844 C 95.378906 34.425781 95.496094 33.972656 95.738281 33.730469 C 95.882812 33.597656 96.101562 33.476562 96.398438 33.371094 C 96.695312 33.269531 96.992188 33.183594 97.289062 33.117188 C 98.203125 32.960938 98.769531 32.882812 98.988281 32.882812 C 99.144531 32.882812 99.292969 32.898438 99.441406 32.933594 C 99.589844 32.96875 99.710938 33.015625 99.796875 33.082031 C 99.972656 33.238281 100.0625 33.625 100.0625 34.246094 L 100.0625 34.742188 C 100.25 34.445312 100.503906 34.140625 100.828125 33.828125 C 101.152344 33.519531 101.527344 33.285156 101.949219 33.125 C 102.371094 32.964844 102.792969 32.882812 103.210938 32.882812 C 103.664062 32.882812 104.039062 32.921875 104.34375 32.992188 C 104.644531 33.0625 104.964844 33.171875 105.304688 33.316406 C 105.65625 33.46875 105.917969 33.652344 106.089844 33.855469 C 106.261719 34.058594 106.34375 34.253906 106.34375 34.445312 C 106.34375 34.84375 106.164062 35.40625 105.800781 36.136719 C 105.65625 36.445312 105.476562 36.722656 105.257812 36.964844 C 105.035156 37.210938 104.804688 37.332031 104.5625 37.332031 C 104.277344 37.332031 103.960938 37.253906 103.605469 37.097656 C 103.191406 36.933594 102.855469 36.851562 102.601562 36.851562 C 102.214844 36.851562 101.90625 36.90625 101.667969 37.015625 C 101.433594 37.125 101.203125 37.296875 100.984375 37.53125 C 100.742188 37.785156 100.542969 38.097656 100.390625 38.46875 C 100.238281 38.839844 100.160156 39.324219 100.160156 39.921875 L 100.160156 46.675781 C 100.160156 46.953125 100.132812 47.160156 100.078125 47.296875 C 100.023438 47.4375 99.929688 47.5625 99.796875 47.671875 C 99.523438 47.914062 98.847656 48.035156 97.769531 48.035156 "/>
<path style=" stroke:none;fill-rule:nonzero;fill:rgb(92.562866%,10.093689%,18.186951%);fill-opacity:1;" d="M 110.601562 48.035156 C 110.039062 48.035156 109.597656 48.003906 109.273438 47.945312 C 108.949219 47.882812 108.714844 47.792969 108.574219 47.671875 C 108.332031 47.472656 108.210938 47.140625 108.210938 46.675781 L 108.210938 27.207031 C 108.210938 26.542969 108.332031 26.089844 108.574219 25.847656 C 108.78125 25.636719 109.320312 25.433594 110.1875 25.234375 C 111.101562 25.078125 111.679688 25 111.921875 25 C 112.074219 25 112.226562 25.019531 112.375 25.050781 C 112.523438 25.085938 112.640625 25.136719 112.730469 25.203125 C 112.90625 25.355469 112.992188 25.742188 112.992188 26.363281 L 112.992188 37.945312 L 116.855469 33.929688 C 117.171875 33.609375 117.507812 33.398438 117.859375 33.300781 C 118.210938 33.199219 118.589844 33.148438 119 33.148438 C 119.285156 33.148438 119.59375 33.148438 119.921875 33.148438 C 120.484375 33.148438 120.910156 33.183594 121.207031 33.257812 C 121.503906 33.328125 121.71875 33.410156 121.851562 33.5 C 121.972656 33.566406 122.066406 33.652344 122.132812 33.753906 C 122.199219 33.859375 122.230469 34 122.230469 34.175781 C 122.230469 34.398438 121.890625 34.835938 121.207031 35.488281 L 117.265625 39.472656 L 122.050781 45.496094 C 122.664062 46.28125 122.972656 46.769531 122.972656 46.957031 C 122.972656 47.253906 122.847656 47.480469 122.59375 47.636719 C 122.460938 47.722656 122.207031 47.8125 121.835938 47.902344 C 121.460938 47.992188 120.992188 48.035156 120.433594 48.035156 C 119.730469 48.035156 119.191406 48.011719 118.824219 47.96875 C 118.457031 47.921875 118.136719 47.824219 117.867188 47.667969 C 117.597656 47.515625 117.371094 47.308594 117.183594 47.054688 L 112.992188 41.164062 L 112.992188 46.675781 C 112.992188 46.949219 112.964844 47.15625 112.910156 47.296875 C 112.855469 47.433594 112.761719 47.558594 112.632812 47.667969 C 112.355469 47.914062 111.679688 48.035156 110.601562 48.035156 "/>
<path style=" stroke:none;fill-rule:nonzero;fill:rgb(92.562866%,10.093689%,18.186951%);fill-opacity:1;" d="M 127.804688 38.957031 L 133.25 38.957031 C 133.25 38.316406 133.105469 37.765625 132.820312 37.308594 C 132.535156 36.847656 132.183594 36.53125 131.773438 36.359375 C 131.359375 36.1875 130.972656 36.105469 130.609375 36.105469 C 130.046875 36.105469 129.550781 36.25 129.117188 36.535156 C 128.683594 36.824219 128.367188 37.1875 128.167969 37.628906 C 127.96875 38.074219 127.851562 38.515625 127.804688 38.957031 Z M 130.808594 48.234375 C 129.6875 48.234375 128.660156 48.058594 127.730469 47.710938 C 126.804688 47.363281 126.003906 46.859375 125.332031 46.191406 C 124.660156 45.527344 124.140625 44.722656 123.773438 43.777344 C 123.402344 42.832031 123.21875 41.761719 123.21875 40.566406 C 123.21875 39.40625 123.386719 38.347656 123.714844 37.390625 C 124.046875 36.433594 124.53125 35.613281 125.175781 34.925781 C 125.816406 34.238281 126.613281 33.707031 127.558594 33.324219 C 128.503906 32.941406 129.589844 32.75 130.808594 32.75 C 131.972656 32.75 132.988281 32.945312 133.851562 33.332031 C 134.714844 33.71875 135.429688 34.242188 135.996094 34.898438 C 136.5625 35.558594 136.980469 36.328125 137.257812 37.207031 C 137.53125 38.085938 137.671875 39.011719 137.671875 39.988281 C 137.671875 40.871094 137.539062 41.449219 137.273438 41.710938 C 137.132812 41.855469 136.90625 41.96875 136.597656 42.042969 C 136.289062 42.121094 135.882812 42.160156 135.378906 42.160156 L 127.9375 42.160156 C 128.003906 42.480469 128.128906 42.777344 128.316406 43.050781 C 128.503906 43.320312 128.75 43.554688 129.050781 43.753906 C 129.355469 43.953125 129.71875 44.109375 130.140625 44.226562 C 130.5625 44.34375 131.058594 44.402344 131.617188 44.402344 C 132.472656 44.402344 133.171875 44.347656 133.710938 44.234375 C 133.984375 44.179688 134.246094 44.113281 134.488281 44.035156 C 134.730469 43.957031 134.992188 43.921875 135.277344 43.921875 C 135.585938 43.921875 135.816406 44.023438 135.964844 44.234375 C 136.109375 44.445312 136.261719 44.726562 136.417969 45.082031 C 136.648438 45.589844 136.761719 46.042969 136.761719 46.441406 C 136.761719 46.628906 136.703125 46.816406 136.582031 46.996094 C 136.460938 47.179688 136.167969 47.355469 135.707031 47.519531 C 135.332031 47.664062 134.902344 47.789062 134.410156 47.894531 C 133.921875 48 133.363281 48.082031 132.730469 48.144531 C 132.097656 48.203125 131.457031 48.234375 130.808594 48.234375 "/>
<path style=" stroke:none;fill-rule:nonzero;fill:rgb(50.411987%,70.181274%,89.369202%);fill-opacity:1;" d="M 144.582031 48.035156 C 144.019531 48.035156 143.578125 48.003906 143.253906 47.945312 C 142.929688 47.882812 142.695312 47.792969 142.554688 47.671875 C 142.3125 47.472656 142.1875 47.140625 142.1875 46.675781 L 142.1875 36.882812 L 140.769531 36.882812 C 140.265625 36.882812 139.945312 36.839844 139.8125 36.75 C 139.617188 36.652344 139.515625 36.367188 139.515625 35.90625 C 139.515625 35.527344 139.550781 35.113281 139.625 34.660156 C 139.695312 34.207031 139.808594 33.839844 139.960938 33.5625 C 140.082031 33.375 140.253906 33.25 140.472656 33.183594 C 140.691406 33.117188 140.972656 33.082031 141.3125 33.082031 L 142.1875 33.082031 L 142.1875 31.109375 C 142.1875 29.789062 142.476562 28.644531 143.046875 27.664062 C 143.617188 26.683594 144.386719 25.996094 145.347656 25.597656 C 146.308594 25.199219 147.328125 25 148.40625 25 C 149.121094 25 149.824219 25.066406 150.511719 25.199219 C 151.199219 25.332031 151.777344 25.527344 152.25 25.78125 C 152.660156 26.003906 152.9375 26.199219 153.085938 26.371094 C 153.230469 26.542969 153.308594 26.726562 153.308594 26.925781 C 153.308594 27.28125 153.160156 27.753906 152.859375 28.351562 C 152.773438 28.519531 152.691406 28.683594 152.613281 28.84375 C 152.535156 29.003906 152.449219 29.140625 152.359375 29.257812 C 152.265625 29.375 152.15625 29.46875 152.039062 29.539062 C 151.914062 29.613281 151.773438 29.648438 151.609375 29.648438 C 151.3125 29.648438 151.019531 29.582031 150.734375 29.449219 C 149.964844 29.195312 149.308594 29.066406 148.769531 29.066406 C 148.230469 29.066406 147.800781 29.230469 147.476562 29.554688 C 147.152344 29.882812 146.988281 30.445312 146.988281 31.242188 L 146.988281 33.082031 L 150.15625 33.082031 C 150.652344 33.082031 150.96875 33.125 151.113281 33.214844 C 151.234375 33.28125 151.3125 33.375 151.351562 33.496094 C 151.390625 33.617188 151.410156 33.804688 151.410156 34.0625 C 151.410156 34.449219 151.375 34.871094 151.300781 35.324219 C 151.230469 35.777344 151.117188 36.140625 150.964844 36.417969 C 150.84375 36.605469 150.671875 36.730469 150.453125 36.789062 C 150.234375 36.851562 149.953125 36.882812 149.609375 36.882812 L 146.988281 36.882812 L 146.988281 46.671875 C 146.988281 46.949219 146.960938 47.15625 146.90625 47.296875 C 146.851562 47.433594 146.753906 47.558594 146.609375 47.667969 C 146.335938 47.914062 145.660156 48.035156 144.582031 48.035156 "/>
<path style=" stroke:none;fill-rule:nonzero;fill:rgb(50.411987%,70.181274%,89.369202%);fill-opacity:1;" d="M 155.632812 48.035156 C 155.070312 48.035156 154.628906 48.003906 154.304688 47.945312 C 153.980469 47.882812 153.746094 47.792969 153.605469 47.671875 C 153.363281 47.472656 153.242188 47.140625 153.242188 46.675781 L 153.242188 27.207031 C 153.242188 26.542969 153.363281 26.089844 153.605469 25.847656 C 153.8125 25.636719 154.351562 25.433594 155.222656 25.234375 C 156.132812 25.078125 156.710938 25 156.953125 25 C 157.105469 25 157.257812 25.019531 157.40625 25.050781 C 157.554688 25.085938 157.671875 25.136719 157.761719 25.203125 C 157.9375 25.355469 158.027344 25.742188 158.027344 26.363281 L 158.027344 46.675781 C 158.027344 46.953125 157.996094 47.160156 157.941406 47.296875 C 157.886719 47.4375 157.796875 47.5625 157.664062 47.671875 C 157.386719 47.914062 156.710938 48.035156 155.632812 48.035156 "/>
<g clip-path="url(#clip1)" clip-rule="nonzero">
<path style=" stroke:none;fill-rule:nonzero;fill:rgb(50.411987%,70.181274%,89.369202%);fill-opacity:1;" d="M 165.050781 54.589844 C 164.261719 54.589844 163.644531 54.515625 163.214844 54.367188 C 162.777344 54.214844 162.5625 53.921875 162.5625 53.476562 C 162.5625 53.269531 162.605469 53.035156 162.699219 52.78125 C 162.796875 52.527344 162.929688 52.226562 163.105469 51.882812 L 165.792969 46.207031 L 160.46875 35.707031 C 160.289062 35.363281 160.15625 35.039062 160.0625 34.734375 C 159.96875 34.429688 159.921875 34.183594 159.921875 33.996094 C 159.921875 33.621094 160.140625 33.351562 160.574219 33.191406 C 161.007812 33.03125 161.636719 32.949219 162.464844 32.949219 C 163.066406 32.949219 163.527344 33 163.847656 33.089844 C 164.167969 33.1875 164.402344 33.308594 164.558594 33.457031 C 164.710938 33.605469 164.820312 33.753906 164.886719 33.898438 L 168.300781 41.164062 L 171.648438 33.828125 C 171.78125 33.519531 172.015625 33.296875 172.351562 33.15625 C 172.6875 33.019531 173.183594 32.949219 173.84375 32.949219 C 174.703125 32.949219 175.335938 33.019531 175.75 33.15625 C 176.160156 33.296875 176.367188 33.585938 176.367188 34.03125 C 176.367188 34.242188 176.316406 34.480469 176.210938 34.75 C 176.105469 35.023438 175.972656 35.328125 175.808594 35.671875 L 167.296875 53.710938 C 167.164062 53.964844 167.003906 54.152344 166.816406 54.273438 C 166.628906 54.398438 166.386719 54.480469 166.082031 54.523438 C 165.78125 54.566406 165.4375 54.589844 165.050781 54.589844 "/>
</g>
</g>
</svg>

<svg xmlns="http://www.w3.org/2000/svg" width="235.16" height="72.787" viewBox="0 0 176.37 54.59"><defs><clipPath id="a"><path d="M159 32h17.371v22.59H159Zm0 0"/></clipPath></defs><path d="M3.086 14.469H18.53c1.512 0 2.653.476 3.102 2.625.5 2.386.293 4.05-2.399 4.238l-4.843.348c3.566 22.523 24.43 29.863 35.793 5.605 1.879-4.015 2.492-4.746 4.554-4.234 2.79.691 3.172 2.125 1.844 6.176C46.758 59.129 13.75 62.125 7.27 22.19l-3.938.286C.125 22.703 0 20.004 0 18.504c0-2.973 1.105-4.035 3.086-4.035M59.242.004a5.727 5.727 0 1 1-.001 11.455A5.727 5.727 0 0 1 59.242.004M80.895 39.238h5.097l-2.574-7.816Zm-5.082 8.864q-.84 0-1.32-.11-.477-.106-.708-.289-.298-.248-.297-.582.001-.311.23-1.062l6.993-19.91q.135-.35.258-.524t.222-.258c.153-.12.403-.219.743-.289q.509-.11 1.55-.11 1.055 0 1.582.118.529.117.758.281.232.216.465.781l6.992 19.915q.23.745.23 1.062a.6.6 0 0 1-.097.363q-.1.134-.2.215c-.151.125-.394.219-.722.293q-.498.106-1.336.106-.877 0-1.422-.106c-.363-.074-.62-.168-.773-.293-.102-.086-.203-.238-.313-.445-.109-.211-.199-.43-.265-.649l-1.137-3.504h-7.605L78.52 46.61a4 4 0 0 1-.258.649c-.102.207-.211.36-.32.445-.153.125-.403.219-.743.293q-.512.106-1.386.106M97.77 48.035q-.843 0-1.329-.09-.486-.092-.703-.273-.362-.3-.36-.996V35.09q-.001-.996.36-1.36.217-.199.66-.359.445-.152.891-.254 1.37-.234 1.7-.234c.156 0 .304.015.452.05s.27.083.356.149q.265.233.266 1.164v.496q.279-.445.765-.914a3.3 3.3 0 0 1 1.121-.703q.634-.241 1.262-.242.677.002 1.133.11.45.106.96.323c.352.153.614.336.786.54q.256.303.254.59 0 .596-.543 1.69a3.3 3.3 0 0 1-.543.829q-.333.368-.695.367c-.286 0-.602-.078-.958-.234q-.622-.246-1.003-.246-.579 0-.934.164c-.234.109-.465.28-.684.515a3 3 0 0 0-.593.938q-.23.555-.23 1.453v6.754q0 .416-.083.62a.9.9 0 0 1-.281.376q-.411.363-2.027.363M110.602 48.035q-.843 0-1.329-.09-.487-.092-.699-.273-.363-.3-.363-.996V27.207q0-.996.363-1.36.311-.314 1.614-.613 1.371-.234 1.734-.234c.152 0 .305.02.453.05a1 1 0 0 1 .355.153q.263.229.262 1.16v11.582l3.863-4.015q.477-.481 1.004-.63.526-.151 1.141-.152h.922q.841 0 1.285.11.446.106.645.242a.8.8 0 0 1 .28.254.8.8 0 0 1 .098.422q0 .334-1.023 1.312l-3.941 3.985 4.785 6.023q.92 1.179.922 1.461a.75.75 0 0 1-.38.68q-.2.13-.757.265-.564.134-1.402.133-1.058 0-1.61-.066a2.5 2.5 0 0 1-.957-.301 2.2 2.2 0 0 1-.683-.613l-4.192-5.89v5.51q0 .41-.082.622a.96.96 0 0 1-.277.371q-.415.368-2.031.367M127.805 38.957h5.445q-.001-.961-.43-1.648-.429-.692-1.047-.95a3 3 0 0 0-1.164-.254q-.842.001-1.492.43-.65.434-.949 1.094c-.2.445-.316.887-.363 1.328m3.004 9.277q-1.683 0-3.079-.523a6.7 6.7 0 0 1-2.398-1.52 6.8 6.8 0 0 1-1.559-2.414q-.554-1.418-.554-3.21c0-1.16.168-2.22.496-3.176.332-.957.816-1.778 1.46-2.465.641-.688 1.438-1.219 2.384-1.602q1.419-.574 3.25-.574 1.747 0 3.043.582 1.295.581 2.144 1.566a6.5 6.5 0 0 1 1.262 2.309c.273.879.414 1.805.414 2.781 0 .883-.133 1.461-.399 1.723-.14.144-.367.258-.675.332q-.463.117-1.22.117h-7.44q.097.48.378.89.283.405.735.704.456.298 1.09.473c.422.117.918.175 1.476.175q1.285.002 2.094-.168c.273-.054.535-.12.777-.199.242-.078.504-.113.79-.113.308 0 .538.101.687.312q.218.316.453.848.344.762.344 1.36a1 1 0 0 1-.18.554q-.183.277-.875.524-.56.217-1.297.375a15 15 0 0 1-1.68.25q-.948.089-1.921.09" style="stroke:none;fill-rule:nonzero;fill:#ec1a2e;fill-opacity:1"/><path d="M144.582 48.035q-.843 0-1.328-.09-.487-.092-.7-.273-.365-.3-.367-.996v-9.793h-1.417q-.757.001-.958-.133c-.195-.098-.296-.383-.296-.844q-.001-.567.109-1.246.106-.68.336-1.097a.9.9 0 0 1 .512-.38q.328-.1.84-.101h.875v-1.973c0-1.32.289-2.464.859-3.445s1.34-1.668 2.3-2.066a7.9 7.9 0 0 1 3.06-.598q1.072 0 2.105.2 1.03.199 1.738.581.614.333.836.59a.85.85 0 0 1 .223.555q0 .53-.45 1.426a29 29 0 0 0-.246.492q-.118.24-.254.414c-.093.117-.203.21-.32.281a.8.8 0 0 1-.43.11q-.446 0-.875-.2-1.155-.382-1.964-.383-.81 0-1.293.489-.488.492-.489 1.687v1.84h3.168q.743-.001.957.133.181.1.239.281t.058.566q.001.582-.11 1.262-.106.679-.335 1.094a.85.85 0 0 1-.512.371q-.328.094-.844.094h-2.62v9.789q0 .415-.083.625a.9.9 0 0 1-.297.371q-.41.368-2.027.367" style="stroke:none;fill-rule:nonzero;fill:#81b3e4;fill-opacity:1"/><path d="M155.633 48.035q-.843 0-1.328-.09-.488-.092-.7-.273-.363-.3-.363-.996V27.207q0-.996.363-1.36.312-.314 1.618-.613 1.366-.234 1.73-.234c.152 0 .305.02.453.05a1 1 0 0 1 .356.153q.264.229.265 1.16v20.313q-.001.416-.086.62a.9.9 0 0 1-.277.376q-.415.363-2.031.363" style="stroke:none;fill-rule:nonzero;fill:#81b3e4;fill-opacity:1"/><g clip-path="url(#a)"><path d="M165.05 54.59c-.788 0-1.405-.074-1.835-.223-.438-.152-.653-.445-.653-.89 0-.207.043-.442.137-.696a9 9 0 0 1 .406-.898l2.688-5.676-5.324-10.5a6 6 0 0 1-.406-.973q-.141-.456-.141-.738.001-.563.652-.805.65-.241 1.89-.242c.602 0 1.063.051 1.384.14q.478.147.71.368.229.224.329.441l3.414 7.266 3.347-7.336q.2-.461.704-.672.502-.206 1.492-.207c.86 0 1.492.07 1.906.207q.616.209.617.875.002.316-.156.719-.157.408-.402.922l-8.512 18.039q-.2.38-.48.562c-.188.125-.43.207-.735.25q-.45.066-1.031.067" style="stroke:none;fill-rule:nonzero;fill:#81b3e4;fill-opacity:1"/></g></svg>
